images/ProcessIcons/Conceptualizing.svg

<svg width="24" height="24" viewBox="0 0 24 24" fill="none" xmlns="http://www.w3.org/2000/svg">
<mask id="path-1-outside-1_9507_2416" maskUnits="userSpaceOnUse" x="0.00448608" y="13.52" width="24" height="10" fill="black">
<rect fill="white" x="0.00448608" y="13.52" width="24" height="10"/>
<path d="M14.1835 18H12L7.49999 15.52L2.00449 17.541L3.50549 20.513L7.04149 19.0365C10.35 21.012 12.3635 22 13.0825 22C13.8015 22 16.774 20.6665 22 18"/>
</mask>
<path d="M14.1835 19.3C14.9015 19.3 15.4835 18.718 15.4835 18C15.4835 17.282 14.9015 16.7 14.1835 16.7V19.3ZM12 18L11.3725 19.1386C11.5647 19.2445 11.7806 19.3 12 19.3V18ZM7.49999 15.52L8.12745 14.3815C7.79749 14.1996 7.40488 14.1699 7.05128 14.2999L7.49999 15.52ZM2.00449 17.541L1.55578 16.3209C1.20775 16.4489 0.930942 16.7194 0.794997 17.0644C0.659051 17.4094 0.676911 17.7961 0.844083 18.1271L2.00449 17.541ZM3.50549 20.513L2.34508 21.0991C2.65237 21.7075 3.37741 21.9753 4.0064 21.7126L3.50549 20.513ZM7.04149 19.0365L7.70795 17.9204C7.35406 17.709 6.92092 17.6781 6.54057 17.8369L7.04149 19.0365ZM22.5908 19.158C23.2304 18.8317 23.4843 18.0487 23.158 17.4092C22.8316 16.7696 22.0487 16.5157 21.4091 16.842L22.5908 19.158ZM14.1835 16.7H12V19.3H14.1835V16.7ZM12.6275 16.8615L8.12745 14.3815L6.87252 16.6586L11.3725 19.1386L12.6275 16.8615ZM7.05128 14.2999L1.55578 16.3209L2.45319 18.7611L7.94869 16.7401L7.05128 14.2999ZM0.844083 18.1271L2.34508 21.0991L4.66589 19.927L3.16489 16.955L0.844083 18.1271ZM4.0064 21.7126L7.5424 20.2361L6.54057 17.8369L3.00457 19.3134L4.0064 21.7126ZM6.37502 20.1527C8.04152 21.1477 9.40698 21.9094 10.4605 22.4262C10.9862 22.6841 11.4554 22.8916 11.8585 23.0373C12.2275 23.1707 12.6656 23.3 13.0825 23.3V20.7C13.1399 20.7 13.0567 20.7058 12.7425 20.5922C12.4625 20.491 12.0867 20.328 11.6056 20.092C10.6455 19.6209 9.34996 18.9008 7.70795 17.9204L6.37502 20.1527ZM13.0825 23.3C13.5223 23.3 14.0478 23.1309 14.4859 22.9727C14.9913 22.7901 15.627 22.5253 16.3832 22.1861C17.899 21.5061 19.9711 20.4947 22.5908 19.158L21.4091 16.842C18.8028 18.1719 16.7757 19.1604 15.319 19.8138C14.589 20.1413 14.0202 20.3765 13.6026 20.5273C13.1179 20.7024 13.0022 20.7 13.0825 20.7V23.3Z" fill="black" mask="url(#path-1-outside-1_9507_2416)"/>
<path d="M14.4702 14.1435C14.4788 14.1438 14.4873 14.144 14.496 14.144C14.855 14.144 15.146 13.8529 15.146 13.494V13.4935V11.5859C15.6439 11.36 16.2395 11.0436 16.6416 10.6416L16.2004 10.2003L16.6416 10.6416C17.3618 9.92133 17.8523 9.00369 18.051 8.00469C18.2497 7.00569 18.1477 5.9702 17.7579 5.02917C17.3682 4.08813 16.7081 3.28381 15.8612 2.71793C15.0142 2.15204 14.0185 1.85 13 1.85C11.9814 1.85 10.9857 2.15204 10.1388 2.71793C9.29188 3.28381 8.63179 4.08813 8.242 5.02917C7.85221 5.9702 7.75021 7.00569 7.94892 8.00469C8.14763 9.00369 8.63812 9.92133 9.35835 10.6416L9.81557 10.1844L9.35835 10.6416C9.76066 11.0439 10.3542 11.3603 10.8521 11.5864C10.8526 11.9711 10.8519 12.605 10.85 13.4921C10.8496 13.6647 10.9179 13.8304 11.0399 13.9526C11.1618 14.0748 11.3273 14.1435 11.5 14.1435H14.4702Z" stroke="black" stroke-width="1.3" stroke-linejoin="round"/>
<mask id="path-4-outside-2_9507_2416" maskUnits="userSpaceOnUse" x="4.5" y="1" width="17" height="11" fill="black">
<rect fill="white" x="4.5" y="1" width="17" height="11"/>
<path d="M6 10.5L6.5 10ZM20 10.5L19.5 10ZM7.5 2.5L7 2ZM18.5 2.5L19 2ZM20.5 6H20ZM6 6H5.5Z"/>
</mask>
<path d="M5.50503 10.005C5.23166 10.2784 5.23166 10.7216 5.50503 10.995C5.77839 11.2683 6.22161 11.2683 6.49497 10.995L5.50503 10.005ZM6.99497 10.495C7.26834 10.2216 7.26834 9.77839 6.99497 9.50503C6.72161 9.23166 6.27839 9.23166 6.00503 9.50503L6.99497 10.495ZM19.505 10.995C19.7784 11.2683 20.2216 11.2683 20.495 10.995C20.7683 10.7216 20.7683 10.2784 20.495 10.005L19.505 10.995ZM19.995 9.50503C19.7216 9.23166 19.2784 9.23166 19.005 9.50503C18.7317 9.77839 18.7317 10.2216 19.005 10.495L19.995 9.50503ZM7.00503 2.99497C7.27839 3.26834 7.72161 3.26834 7.99497 2.99497C8.26834 2.72161 8.26834 2.27839 7.99497 2.00503L7.00503 2.99497ZM7.49497 1.50503C7.22161 1.23166 6.77839 1.23166 6.50503 1.50503C6.23166 1.77839 6.23166 2.22161 6.50503 2.49497L7.49497 1.50503ZM18.005 2.00503C17.7317 2.27839 17.7317 2.72161 18.005 2.99497C18.2784 3.26834 18.7216 3.26834 18.995 2.99497L18.005 2.00503ZM19.495 2.49497C19.7683 2.22161 19.7683 1.77839 19.495 1.50503C19.2216 1.23166 18.7784 1.23166 18.505 1.50503L19.495 2.49497ZM20.5 6.7C20.8866 6.7 21.2 6.3866 21.2 6C21.2 5.6134 20.8866 5.3 20.5 5.3V6.7ZM20 5.3C19.6134 5.3 19.3 5.6134 19.3 6C19.3 6.3866 19.6134 6.7 20 6.7V5.3ZM6 6.7C6.3866 6.7 6.7 6.3866 6.7 6C6.7 5.6134 6.3866 5.3 6 5.3V6.7ZM5.5 5.3C5.1134 5.3 4.8 5.6134 4.8 6C4.8 6.3866 5.1134 6.7 5.5 6.7V5.3ZM6.49497 10.995L6.99497 10.495L6.00503 9.50503L5.50503 10.005L6.49497 10.995ZM20.495 10.005L19.995 9.50503L19.005 10.495L19.505 10.995L20.495 10.005ZM7.99497 2.00503L7.49497 1.50503L6.50503 2.49497L7.00503 2.99497L7.99497 2.00503ZM18.995 2.99497L19.495 2.49497L18.505 1.50503L18.005 2.00503L18.995 2.99497ZM20.5 5.3H20V6.7H20.5V5.3ZM6 5.3H5.5V6.7H6V5.3Z" fill="black" mask="url(#path-4-outside-2_9507_2416)"/>
</svg>

<svg xmlns="http://www.w3.org/2000/svg" width="24" height="24" fill="none" xmlns:v="https://vecta.io/nano"><mask id="A" maskUnits="userSpaceOnUse" x=".004" y="13.52" width="24" height="10" fill="#000"><path fill="#fff" d="M.004 13.52h24v10h-24z"/><path d="M14.184 18H12l-4.5-2.48-5.495 2.021 1.501 2.972 3.536-1.477C10.35 21.012 12.364 22 13.083 22s3.692-1.334 8.918-4"/></mask><path d="M14.184 19.3a1.3 1.3 0 1 0 0-2.6v2.6zM12 18l-.627 1.139A1.3 1.3 0 0 0 12 19.3V18zm-4.5-2.48l.627-1.138a1.3 1.3 0 0 0-1.076-.082l.449 1.22zm-5.495 2.021l-.449-1.22a1.3 1.3 0 0 0-.712 1.806l1.16-.586zm1.501 2.972l-1.16.586a1.3 1.3 0 0 0 1.661.613l-.501-1.2zm3.536-1.477l.666-1.116a1.3 1.3 0 0 0-1.167-.084l.501 1.2zm15.549.122a1.3 1.3 0 1 0-1.182-2.316l1.182 2.316zM14.184 16.7H12v2.6h2.184v-2.6zm-1.556.162l-4.5-2.48-1.255 2.277 4.5 2.48 1.255-2.277zM7.051 14.3l-5.495 2.021.897 2.44 5.496-2.021-.897-2.44zM.844 18.127l1.501 2.972 2.321-1.172-1.501-2.972-2.321 1.172zm3.162 3.585l3.536-1.476-1.002-2.399-3.536 1.477 1.002 2.399zm2.369-1.56l4.085 2.274 1.398.611c.369.133.807.263 1.224.263v-2.6c.057 0-.026.006-.34-.108-.28-.101-.656-.264-1.137-.5-.96-.471-2.256-1.191-3.898-2.172l-1.333 2.232zm6.707 3.147c.44 0 .965-.169 1.403-.327l1.897-.787 6.208-3.028-1.182-2.316-6.09 2.972-1.716.713-.52.173v2.6z" fill="#000" mask="url(#A)"/><path d="M14.47 14.144h.026a.65.65 0 0 0 .65-.65h0v-1.908c.498-.226 1.093-.542 1.496-.944L16.2 10.2l.441.441a5.15 5.15 0 0 0 1.116-5.612A5.15 5.15 0 0 0 13 1.85a5.15 5.15 0 0 0-4.758 3.179 5.15 5.15 0 0 0 1.116 5.612l.457-.457-.457.457c.402.402.996.719 1.494.945l-.002 1.906a.65.65 0 0 0 .65.651h2.97z" stroke="#000" stroke-width="1.3" stroke-linejoin="round"/><mask id="B" maskUnits="userSpaceOnUse" x="4.5" y="1" width="17" height="11" fill="#000"><path fill="#fff" d="M4.5 1h17v11h-17z"/><path d="M6 10.5l.5-.5zm14 0l-.5-.5zm-12.5-8L7 2zm11 0L19 2zm2 3.5H20zM6 6h-.5z"/></mask><path d="M5.505 10.005a.7.7 0 1 0 .99.99l-.99-.99zm1.49.49a.7.7 0 1 0-.99-.99l.99.99zm12.51.5a.7.7 0 1 0 .99-.99l-.99.99zm.49-1.49a.7.7 0 1 0-.99.99l.99-.99zm-12.99-6.51a.7.7 0 0 0 .99-.99l-.99.99zm.49-1.49a.7.7 0 0 0-.99.99l.99-.99zm10.51.5a.7.7 0 1 0 .99.99l-.99-.99zm1.49.49a.7.7 0 1 0-.99-.99l.99.99zM20.5 6.7a.7.7 0 1 0 0-1.4v1.4zM20 5.3a.7.7 0 1 0 0 1.4V5.3zM6 6.7a.7.7 0 1 0 0-1.4v1.4zm-.5-1.4a.7.7 0 1 0 0 1.4V5.3zm.995 5.695l.5-.5-.99-.99-.5.5.99.99zm14-.99l-.5-.5-.99.99.5.5.99-.99zm-12.5-8l-.5-.5-.99.99.5.5.99-.99zm11 .99l.5-.5-.99-.99-.5.5.99.99zM20.5 5.3H20v1.4h.5V5.3zM6 5.3h-.5v1.4H6V5.3z" fill="#000" mask="url(#B)"/></svg>
